images/icons/generic-sms.svg

<svg width="24" height="24" viewBox="0 0 24 24" fill="none" xmlns="http://www.w3.org/2000/svg">
<path d="M7.2 11.8C7.54 11.8 7.825 11.685 8.055 11.455C8.285 11.225 8.4 10.94 8.4 10.6C8.4 10.26 8.285 9.97501 8.055 9.74501C7.825 9.51501 7.54 9.40001 7.2 9.40001C6.86 9.40001 6.575 9.51501 6.345 9.74501C6.115 9.97501 6 10.26 6 10.6C6 10.94 6.115 11.225 6.345 11.455C6.575 11.685 6.86 11.8 7.2 11.8ZM12 11.8C12.34 11.8 12.625 11.685 12.855 11.455C13.085 11.225 13.2 10.94 13.2 10.6C13.2 10.26 13.085 9.97501 12.855 9.74501C12.625 9.51501 12.34 9.40001 12 9.40001C11.66 9.40001 11.375 9.51501 11.145 9.74501C10.915 9.97501 10.8 10.26 10.8 10.6C10.8 10.94 10.915 11.225 11.145 11.455C11.375 11.685 11.66 11.8 12 11.8ZM16.8 11.8C17.14 11.8 17.425 11.685 17.655 11.455C17.885 11.225 18 10.94 18 10.6C18 10.26 17.885 9.97501 17.655 9.74501C17.425 9.51501 17.14 9.40001 16.8 9.40001C16.46 9.40001 16.175 9.51501 15.945 9.74501C15.715 9.97501 15.6 10.26 15.6 10.6C15.6 10.94 15.715 11.225 15.945 11.455C16.175 11.685 16.46 11.8 16.8 11.8ZM0 22.09V3.4C0 2.74 0.235 2.175 0.705 1.705C1.175 1.235 1.74 1 2.4 1H21.6C22.26 1 22.825 1.235 23.295 1.705C23.765 2.175 24 2.74 24 3.4V17.8C24 18.46 23.765 19.025 23.295 19.495C22.825 19.965 22.26 20.2 21.6 20.2H4.8L2.04 22.96C1.66 23.34 1.225 23.425 0.735 23.215C0.245 23.005 0 22.63 0 22.09Z" fill="white"/>
</svg>

<svg fill="none" height="24" viewBox="0 0 24 24" width="24" xmlns="http://www.w3.org/2000/svg"><path d="m7.2 11.8c.34 0 .625-.115.855-.345s.345-.515.345-.855-.115-.62499-.345-.85499-.515-.345-.855-.345-.625.115-.855.345-.345.51499-.345.85499.115.625.345.855.515.345.855.345zm4.8 0c.34 0 .625-.115.855-.345s.345-.515.345-.855-.115-.62499-.345-.85499-.515-.345-.855-.345-.625.115-.855.345-.345.51499-.345.85499.115.625.345.855.515.345.855.345zm4.8 0c.34 0 .625-.115.855-.345s.345-.515.345-.855-.115-.62499-.345-.85499-.515-.345-.855-.345-.625.115-.855.345-.345.51499-.345.85499.115.625.345.855.515.345.855.345zm-16.8 10.29v-18.69c0-.66.235-1.225.705-1.695s1.035-.705 1.695-.705h19.2c.66 0 1.225.235 1.695.705s.705 1.035.705 1.695v14.4c0 .66-.235 1.225-.705 1.695s-1.035.705-1.695.705h-16.8l-2.76 2.76c-.38.38-.815.465-1.305.255s-.735-.585-.735-1.125z" fill="#fff"/></svg>
